static/card-icons/blocked.svg

<svg viewBox="0 0 215.455 215.455" xmlns="http://www.w3.org/2000/svg"><path d="m107.728.001c-59.403 0-107.728 48.328-107.728 107.731.005 59.397 48.332 107.722 107.728 107.722 59.401 0 107.728-48.324 107.728-107.723-.001-59.402-48.327-107.73-107.728-107.73zm0 15c22.021 0 42.269 7.721 58.192 20.592l-130.327 130.326c-12.869-15.922-20.591-36.169-20.593-58.188 0-51.131 41.598-92.73 92.728-92.73zm0 185.453c-23.718 0-45.381-8.956-61.797-23.658l130.865-130.865c14.703 16.416 23.659 38.081 23.659 61.801 0 51.127-41.598 92.722-92.727 92.722z"/></svg>

<?xml version="1.0" encoding="iso-8859-1"?>
<!-- Generator: Adobe Illustrator 18.0.0, SVG Export Plug-In . SVG Version: 6.00 Build 0)  -->
<!DOCTYPE svg PUBLIC "-//W3C//DTD SVG 1.1//EN" "http://www.w3.org/Graphics/SVG/1.1/DTD/svg11.dtd">
<svg version="1.1" id="Capa_1" xmlns="http://www.w3.org/2000/svg" xmlns:xlink="http://www.w3.org/1999/xlink" x="0px" y="0px"
	 viewBox="0 0 215.455 215.455" style="enableBackground:new 0 0 215.455 215.455;" xml:space="preserve">
<path d="M107.728,0.001C48.325,0.001,0,48.329,0,107.732c0.005,59.397,48.332,107.722,107.728,107.722
	c59.401,0,107.728-48.324,107.728-107.723C215.455,48.329,167.129,0.001,107.728,0.001z M107.728,15.001
	c22.021,0,42.269,7.721,58.192,20.592L35.593,165.919C22.724,149.997,15.002,129.75,15,107.731
	C15,56.6,56.598,15.001,107.728,15.001z M107.728,200.454c-23.718,0-45.381-8.956-61.797-23.658L176.796,45.931
	c14.703,16.416,23.659,38.081,23.659,61.801C200.455,158.859,158.857,200.454,107.728,200.454z"/>
<g>
</g>
<g>
</g>
<g>
</g>
<g>
</g>
<g>
</g>
<g>
</g>
<g>
</g>
<g>
</g>
<g>
</g>
<g>
</g>
<g>
</g>
<g>
</g>
<g>
</g>
<g>
</g>
<g>
</g>
</svg>
